src/assets/icons/filters/categories/car.svg

<svg width="48" height="44" viewBox="0 0 48 44" fill="none" xmlns="http://www.w3.org/2000/svg">
<path fill-rule="evenodd" clip-rule="evenodd" d="M45.236 13.8849L47.559 11.5587C47.8403 11.2775 47.9983 10.8961 47.9983 10.4983C47.9983 10.1006 47.8403 9.71916 47.559 9.43792C47.2778 9.15668 46.8964 8.99868 46.4986 8.99868C46.1009 8.99868 45.7194 9.15668 45.4382 9.43792L42.6669 12.2108L39.8171 5.22448C38.7418 2.0017 35.6789 0 31.8245 0H16.1761C12.3201 0 9.25716 2.0017 8.22261 5.11789L5.2663 12.1434L2.5608 9.43792C2.42154 9.29867 2.25622 9.1882 2.07428 9.11284C1.89233 9.03747 1.69732 8.99868 1.50038 8.99868C1.30345 8.99868 1.10844 9.03747 0.926494 9.11284C0.744548 9.1882 0.579227 9.29867 0.439971 9.43792C0.300716 9.57718 0.190252 9.7425 0.114888 9.92444C0.0395232 10.1064 0.00073242 10.3014 0.000732422 10.4983C0.000732423 10.6953 0.0395232 10.8903 0.114888 11.0722C0.190252 11.2542 0.300716 11.4195 0.439971 11.5587L2.76457 13.8849C1.9444 14.2415 1.24608 14.8296 0.755213 15.5772C0.264344 16.3248 0.00225338 17.1993 0.00107027 18.0937V31.7858C0.00107027 32.0695 0.0292858 32.3469 0.0763108 32.6165C0.0449608 32.7419 0.00107027 32.8626 0.00107027 32.9975V39.0135C0.00314236 40.2019 0.476129 41.3409 1.31642 42.1812C2.1567 43.0215 3.29578 43.4945 4.48412 43.4966H7.48589C9.97508 43.4966 12.0003 41.487 12.0003 39.0135V37.4977C12.0003 37.3849 11.9595 37.2861 11.9376 37.1811C15.1416 37.3676 19.1167 37.4977 23.9995 37.4977C28.8854 37.4977 32.8574 37.3676 36.063 37.1811C36.0395 37.2861 36.0003 37.3849 36.0003 37.4977V39.0135C36.0024 40.2019 36.4753 41.3409 37.3156 42.1812C38.1559 43.0215 39.295 43.4945 40.4833 43.4966H43.4835C45.9727 43.4966 47.9979 41.487 47.9979 39.0135V32.9975C47.9979 32.8626 47.954 32.7419 47.9211 32.6165C47.9713 32.3469 47.9995 32.0695 47.9995 31.7858V18.0952C47.9983 17.2009 47.7362 16.3263 47.2454 15.5788C46.7545 14.8312 46.0562 14.2431 45.236 13.8865V13.8849Z" fill="#CFD8DC"/>
<path fill-rule="evenodd" clip-rule="evenodd" d="M43.484 40.4979H40.4838C40.0903 40.4975 39.7129 40.341 39.4346 40.0627C39.1564 39.7844 38.9998 39.4071 38.9994 39.0135V37.4977C38.9958 37.3233 38.9613 37.1508 38.8975 36.9883C40.998 36.8206 42.6595 36.6325 43.9386 36.4585C44.3022 36.4031 44.6579 36.3047 44.9982 36.1654V39.0135C44.9982 39.8176 44.3054 40.4979 43.484 40.4979ZM4.46894 33.4849C4.06055 33.4261 3.68713 33.2218 3.41731 32.9096C3.14748 32.5974 2.99937 32.1984 3.0002 31.7858V27.4532C6.71831 27.9501 13.33 28.5316 24 28.5316C34.6684 28.5316 41.2817 27.9517 44.9982 27.4532V31.7858C44.9982 32.6416 44.3681 33.3721 43.5326 33.4849C40.1625 33.9474 34.0383 34.4975 24 34.4975C13.9602 34.4975 7.83907 33.9489 4.46894 33.4849V33.4849ZM9.00059 37.4977V39.0135C9.00059 39.8176 8.30775 40.4979 7.48638 40.4979H4.48619C4.09235 40.4979 3.71462 40.3416 3.43599 40.0633C3.15735 39.7849 3.00061 39.4074 3.0002 39.0135V36.1654C3.34034 36.2986 3.6899 36.4068 4.06139 36.4585C5.33891 36.6325 7.00359 36.819 9.10404 36.9883C9.03973 37.1507 9.00471 37.3232 9.00059 37.4977ZM11.0289 6.17438C11.9851 3.30899 14.9477 2.99863 16.1766 2.99863H31.825C33.0539 2.99863 36.0165 3.30899 37.0056 6.26687L39.8239 13.1827C39.3223 13.0165 38.6671 12.7485 37.8755 12.4271C34.7295 11.1434 29.4596 8.99902 24 8.99902C18.542 8.99902 13.272 11.1434 10.1245 12.4271C9.30468 12.7595 8.62595 13.0385 8.11808 13.2031C8.10241 13.2093 8.08674 13.2109 8.07106 13.2156L11.0289 6.17438ZM39.1076 22.0453C41.3021 21.8839 43.2771 21.6848 44.9967 21.4528V24.4687C44.9277 24.4687 44.8634 24.4452 44.7945 24.453C42.5827 24.7587 39.2502 25.0972 34.5164 25.312C34.6966 22.4121 38.9179 22.0594 39.1076 22.0453ZM16.4948 25.4249C16.4415 20.7804 11.645 19.2238 9.11031 19.0545C7.13587 18.9147 5.16617 18.7145 3.20397 18.4542C3.13343 18.4463 3.0676 18.4667 3.0002 18.4667V18.0952C3.0002 17.2159 3.71498 16.4995 4.59434 16.4995H6.22454C7.19012 16.4995 8.1369 16.3522 9.04291 16.0606C9.60251 15.8756 10.3533 15.5747 11.2547 15.2063C14.3897 13.9288 19.1266 12.0008 23.9984 12.0008C28.8702 12.0008 33.6072 13.9288 36.7422 15.2063C37.6451 15.5731 38.3959 15.8756 38.9555 16.059C39.865 16.3527 40.815 16.5013 41.7708 16.4995H43.4041C44.2835 16.4995 44.9967 17.2159 44.9967 18.0952V18.4667C44.9277 18.4667 44.8634 18.4448 44.7945 18.4542C43.0906 18.6893 41.1046 18.8899 38.8975 19.053C36.3519 19.2254 31.5569 20.7804 31.5021 25.4249C29.0015 25.4986 26.5 25.5347 23.9984 25.533C21.2208 25.533 18.7316 25.4923 16.4948 25.4249V25.4249ZM2.99863 21.4528C4.71818 21.6848 6.69479 21.8839 8.90027 22.0453C8.94416 22.05 13.2955 22.3839 13.4821 25.312C8.74822 25.0972 5.41571 24.7587 3.20397 24.4546C3.13343 24.4452 3.0676 24.4687 3.0002 24.4687V21.4497L2.99863 21.4528ZM47.558 11.5619L45.2349 13.8865C46.0548 14.2433 46.7528 14.8315 47.2434 15.5791C47.734 16.3266 47.9958 17.2011 47.9969 18.0952V31.7873C47.9969 32.0711 47.9702 32.3485 47.9201 32.6181C47.953 32.7435 47.9984 32.8642 47.9984 32.999V39.0151C47.9984 41.4886 45.9717 43.4981 43.4825 43.4981H40.4823C39.2939 43.4961 38.1548 43.0231 37.3146 42.1828C36.4743 41.3425 36.0013 40.2034 35.9992 39.0151V37.4993C35.9992 37.3865 36.0384 37.2877 36.0619 37.1827C32.8564 37.3692 28.8828 37.4993 23.9984 37.4993C19.1141 37.4993 15.1405 37.3692 11.9365 37.1827C11.9585 37.2877 11.9992 37.3865 11.9992 37.4993V39.0151C11.9992 41.4886 9.974 43.4981 7.48481 43.4981H4.48462C3.296 43.4965 2.15652 43.0237 1.3159 42.1833C0.475274 41.343 0.00207322 40.2037 0 39.0151V32.999C0 32.8642 0.042323 32.7435 0.0752405 32.6181C0.0258112 32.3439 0.000633294 32.0659 0 31.7873V18.0952C0.000783453 17.2008 0.262711 16.3261 0.753628 15.5784C1.24455 14.8308 1.94309 14.2427 2.7635 13.8865L0.440468 11.5587C0.182818 11.2729 0.0447252 10.8991 0.0546889 10.5144C0.0646525 10.1297 0.221912 9.76357 0.494013 9.49147C0.766114 9.21936 1.13229 9.06211 1.51697 9.05214C1.90165 9.04218 2.27547 9.18027 2.5613 9.43792L5.2668 12.1434L8.22311 5.11789C9.25766 2.0017 12.3206 0 16.1766 0H31.825C35.681 0 38.7423 2.0017 39.8192 5.22448L42.6674 12.2108L45.4387 9.43792C45.7199 9.15668 46.1014 8.99868 46.4991 8.99868C46.8968 8.99868 47.2783 9.15668 47.5595 9.43792C47.8408 9.71916 47.9988 10.1006 47.9988 10.4983C47.9988 10.8961 47.8408 11.2775 47.5595 11.5587L47.558 11.5619ZM28.4972 30.0004H28.4815C27.5253 30.0004 25.033 30.0161 23.9984 30.0161C22.9639 30.0161 20.4716 30.0004 19.5154 30.0004H19.4997C19.0998 29.9981 18.7153 30.1548 18.4309 30.436C18.1465 30.7171 17.9854 31.0998 17.9831 31.4997C17.9809 31.8996 18.1375 32.2841 18.4187 32.5685C18.6999 32.8529 19.0825 33.014 19.4825 33.0163C22.4931 33.0372 25.5038 33.0356 28.5144 33.0116C28.7117 33.0093 28.9067 32.9682 29.0881 32.8905C29.2696 32.8129 29.4339 32.7002 29.5718 32.559C29.7096 32.4178 29.8183 32.2508 29.8916 32.0676C29.9649 31.8843 30.0013 31.6884 29.9988 31.4911C29.9943 31.0955 29.8345 30.7175 29.5539 30.4387C29.2733 30.1598 28.8943 30.0024 28.4987 30.0004H28.4972ZM26.9986 22.4999C26.9986 22.1021 26.8406 21.7205 26.5593 21.4392C26.2779 21.1578 25.8964 20.9998 25.4985 20.9998H22.4983C22.1005 20.9998 21.7189 21.1578 21.4376 21.4392C21.1563 21.7205 20.9982 22.1021 20.9982 22.4999C20.9982 22.8978 21.1563 23.2793 21.4376 23.5606C21.7189 23.842 22.1005 24 22.4983 24H25.5017C25.8995 24 26.2811 23.842 26.5624 23.5606C26.8437 23.2793 27.0018 22.8978 27.0018 22.4999H26.9986Z" fill="#253238"/>
<path fill-rule="evenodd" clip-rule="evenodd" d="M3.00024 21.4512C4.71979 21.6832 6.69641 21.8823 8.90188 22.0438C8.94577 22.0485 13.2972 22.3823 13.4837 25.3104C8.74984 25.0957 5.41733 24.7571 3.20559 24.453C3.13505 24.4436 3.06921 24.4671 3.00181 24.4671V21.4497L3.00024 21.4512ZM39.1092 22.0438C41.3037 21.8823 43.2787 21.6832 44.9983 21.4512V24.4671C44.9293 24.4671 44.865 24.4436 44.7961 24.4514C42.5843 24.7571 39.2518 25.0957 34.518 25.3104C34.6982 22.4106 38.9195 22.0579 39.1092 22.0438V22.0438ZM11.029 6.17439C11.9852 3.309 14.9477 2.99863 16.1767 2.99863H31.825C33.0539 2.99863 36.0165 3.309 37.0056 6.26687L39.824 13.1827C39.3224 13.0165 38.6672 12.7485 37.8756 12.4271C34.7296 11.1434 29.4597 8.99902 24 8.99902C18.542 8.99902 13.2721 11.1434 10.1245 12.4271C9.30473 12.7595 8.626 13.0385 8.11813 13.2031C8.10246 13.2093 8.08678 13.2109 8.07111 13.2156L11.029 6.17439V6.17439Z" fill="white" fill-opacity="0.7"/>
</svg>

<svg width="48" height="44" viewBox="0 0 48 44" fill="none" xmlns="http://www.w3.org/2000/svg"><path fill-rule="evenodd" clip-rule="evenodd" d="M45.236 13.885l2.323-2.326a1.5 1.5 0 10-2.12-2.121l-2.772 2.773-2.85-6.987C38.742 2.002 35.68 0 31.825 0H16.175C12.32 0 9.257 2.002 8.223 5.118l-2.957 7.025-2.705-2.705a1.5 1.5 0 00-2.121 2.12l2.325 2.327A4.596 4.596 0 000 18.094v13.692c0 .283.028.56.075.83-.031.126-.075.247-.075.382v6.016a4.49 4.49 0 004.483 4.483h3.002c2.49 0 4.514-2.01 4.514-4.483v-1.516c0-.113-.04-.212-.062-.317 3.204.187 7.179.317 12.062.317 4.885 0 8.857-.13 12.063-.317-.024.105-.063.204-.063.317v1.516a4.49 4.49 0 004.483 4.483h3c2.49 0 4.515-2.01 4.515-4.483v-6.017c0-.134-.044-.255-.077-.38.05-.27.078-.547.078-.831v-13.69a4.596 4.596 0 00-2.763-4.21v-.001z" fill="#CFD8DC"/><path fill-rule="evenodd" clip-rule="evenodd" d="M43.484 40.498h-3a1.486 1.486 0 01-1.485-1.484v-1.516a1.477 1.477 0 00-.102-.51c2.101-.167 3.763-.355 5.042-.53.363-.055.719-.153 1.06-.293v2.849c0 .804-.694 1.484-1.515 1.484zM4.469 33.485A1.713 1.713 0 013 31.785v-4.332c3.718.497 10.33 1.079 21 1.079 10.668 0 17.282-.58 20.998-1.079v4.333a1.71 1.71 0 01-1.465 1.699c-3.37.462-9.495 1.013-19.533 1.013-10.04 0-16.16-.55-19.531-1.013zM9 37.498v1.516c0 .804-.693 1.484-1.515 1.484h-3A1.486 1.486 0 013 39.014v-2.849c.34.134.69.242 1.061.294 1.278.173 2.943.36 5.043.53-.064.162-.1.334-.103.509zm2.028-31.324C11.985 3.31 14.948 3 16.177 3h15.648c1.229 0 4.192.31 5.18 3.268l2.819 6.916c-.502-.166-1.157-.434-1.948-.756C34.73 11.143 29.46 9 24 9c-5.458 0-10.728 2.144-13.876 3.428-.82.332-1.498.612-2.006.776-.016.006-.031.008-.047.013l2.958-7.042zm28.079 15.871a98.82 98.82 0 005.889-.592v3.016c-.07 0-.134-.024-.203-.016-2.211.306-5.544.644-10.278.859.18-2.9 4.402-3.253 4.592-3.267zm-22.613 3.38c-.053-4.645-4.85-6.201-7.385-6.37a97.02 97.02 0 01-5.906-.6c-.07-.009-.136.012-.204.012v-.372c0-.88.715-1.595 1.594-1.595h1.63c.966 0 1.913-.148 2.819-.44.56-.184 1.31-.485 2.212-.854 3.135-1.277 7.872-3.205 12.743-3.205 4.872 0 9.61 1.928 12.744 3.205.903.367 1.654.67 2.214.853.909.294 1.859.442 2.815.44h1.633c.88 0 1.593.717 1.593 1.596v.372c-.07 0-.134-.022-.203-.013-1.703.235-3.69.436-5.896.599-2.546.172-7.341 1.727-7.396 6.372-2.5.074-5.002.11-7.504.108-2.777 0-5.266-.04-7.503-.108zM2.999 21.453c1.72.232 3.696.43 5.901.592.044.005 4.396.339 4.582 3.267-4.734-.215-8.066-.553-10.278-.857-.07-.01-.136.014-.204.014v-3.02L3 21.454zm44.559-9.891l-2.323 2.325a4.596 4.596 0 012.762 4.208v13.692c0 .284-.027.562-.077.831.033.125.078.246.078.381v6.016c0 2.474-2.026 4.483-4.515 4.483h-3a4.49 4.49 0 01-4.484-4.483V37.5c0-.113.04-.211.063-.316-3.206.186-7.18.316-12.064.316s-8.858-.13-12.062-.316c.023.105.063.203.063.316v1.516c0 2.474-2.025 4.483-4.514 4.483h-3A4.49 4.49 0 010 39.015V33c0-.135.042-.256.075-.38A4.744 4.744 0 010 31.786V18.095a4.593 4.593 0 012.764-4.208L.44 11.559a1.502 1.502 0 012.121-2.121l2.706 2.705 2.956-7.025C9.258 2.002 12.321 0 16.177 0h15.648c3.856 0 6.917 2.002 7.994 5.224l2.848 6.987 2.772-2.773a1.5 1.5 0 112.12 2.12l-.001.004zM28.498 30h-.017c-.956 0-3.448.016-4.483.016-1.034 0-3.526-.016-4.483-.016H19.5a1.508 1.508 0 10-.017 3.016c3.01.021 6.02.02 9.031-.004A1.502 1.502 0 0030 31.492a1.508 1.508 0 00-1.5-1.492h-.002zm-1.5-7.5a1.5 1.5 0 00-1.5-1.5h-3a1.5 1.5 0 100 3h3.004a1.5 1.5 0 001.5-1.5h-.003z" fill="#253238"/><path fill-rule="evenodd" clip-rule="evenodd" d="M3 21.451c1.72.232 3.696.431 5.902.593.044.005 4.395.338 4.582 3.266-4.734-.214-8.067-.553-10.278-.857-.07-.01-.137.014-.204.014V21.45L3 21.45zm36.11.593c2.194-.162 4.169-.36 5.888-.593v3.016c-.069 0-.133-.023-.202-.016-2.212.306-5.544.645-10.278.86.18-2.9 4.401-3.253 4.591-3.267zM11.028 6.174C11.985 3.31 14.948 3 16.177 3h15.648c1.229 0 4.192.31 5.18 3.268l2.819 6.916c-.502-.166-1.157-.434-1.948-.756C34.73 11.143 29.46 9 24 9c-5.458 0-10.728 2.144-13.876 3.428-.82.332-1.498.612-2.006.776-.016.006-.031.008-.047.013l2.958-7.042z" fill="#fff" fill-opacity=".7"/></svg>
